X: 25026
T: Maid's Complaint, The
R: slip jig
M: 9/8
K: Dmajor
|:A2 F F2 d cBA|B2 c d2 e fdB|A2 F F2 d cBA|1 BcB AFD D2A:|2 BcB AFD D2 d/e/||
|:f2 d d2 f agf|e2 BB2 f gfe|1 d2 B BcB Bcd|ecA ABc d2e:|2 fef def gfg|ecA ABc d2B||

